src/assets/images/components/page/PageHeader/menu-dropdown-help-icon-contact.svg

<svg fill="none" height="28" viewBox="0 0 28 28" width="28" xmlns="http://www.w3.org/2000/svg"><path d="m14.1634 15.5295c.4953 0 .9469-.2332 1.4752-.7615l10.2164-10.14254c-.4505-.40711-1.2612-.60422-2.4108-.60422h-18.8946c-1.00336 0-1.71586.1875-2.12578.56578l10.26448 10.18098c.5208.5187.9703.7615 1.4751.7615zm-12.84934 7.0643 8.40961-8.3348-8.3993-8.28636c-.21164.36399-.32437.97711-.32437 1.84476v12.9501c0 .8595.10219 1.4707.31406 1.8263zm3.53015 1.9795h18.89459c1.0287 0 1.7527-.198 2.1731-.5878l-8.5715-8.5064-.7228.7324c-.8192.7882-1.5935 1.1482-2.4542 1.1482-.8702 0-1.6467-.36-2.4562-1.1482l-.7303-.7282-8.55237 8.4926c.47273.3994 1.27359.5974 2.41968.5974zm22.14189-1.9891c.2001-.3652.3044-.9668.3044-1.8167v-12.9501c0-.84843-.1127-1.46155-.3147-1.81593l-8.3822 8.25753z" fill="#000"/></svg>

<svg width="28" height="28" viewBox="0 0 28 28" fill="none" xmlns="http://www.w3.org/2000/svg">
<path d="M14.1634 15.5295C14.6587 15.5295 15.1103 15.2963 15.6386 14.768L25.855 4.62546C25.4045 4.21835 24.5938 4.02124 23.4442 4.02124H4.5496C3.54624 4.02124 2.83374 4.20874 2.42382 4.58702L12.6883 14.768C13.2091 15.2867 13.6586 15.5295 14.1634 15.5295ZM1.31406 22.5938L9.72367 14.259L1.32437 5.97264C1.11273 6.33663 1 6.94975 1 7.8174V20.7675C1 21.627 1.10219 22.2382 1.31406 22.5938ZM4.84421 24.5733H23.7388C24.7675 24.5733 25.4915 24.3753 25.9119 23.9855L17.3404 15.4791L16.6176 16.2115C15.7984 16.9997 15.0241 17.3597 14.1634 17.3597C13.2932 17.3597 12.5167 16.9997 11.7072 16.2115L10.9769 15.4833L2.42453 23.9759C2.89726 24.3753 3.69812 24.5733 4.84421 24.5733ZM26.9861 22.5842C27.1862 22.219 27.2905 21.6174 27.2905 20.7675V7.8174C27.2905 6.96897 27.1778 6.35585 26.9758 6.00147L18.5936 14.259L26.9861 22.5842Z" fill="black"/>
</svg>
